static/site/images/special-projects/autoclave/svg/3-fill.svg

<svg width="168" height="84" viewBox="0 0 168 84" fill="none" xmlns="http://www.w3.org/2000/svg">
<path d="M30.1674 83.3399C24.5994 83.2759 19.8954 82.0919 16.0554 79.7879C12.2794 77.4199 9.46344 74.3159 7.60744 70.4759C5.81544 66.6359 5.11144 62.4439 5.49544 57.8999L25.5594 57.9959C25.4954 60.7479 26.0394 62.9239 27.1914 64.5239C28.4074 66.0599 30.1994 66.8919 32.5674 67.0199C34.6794 67.0839 36.5994 66.6039 38.3274 65.5799C40.1194 64.4919 41.1754 62.8599 41.4954 60.6839C42.0714 58.0599 41.1754 56.1719 38.8074 55.0199C36.4394 53.8039 33.3674 53.1639 29.5914 53.0999L30.9354 43.2119L31.3194 40.7159C33.1754 40.5879 35.0314 40.2359 36.8874 39.6599C38.8074 39.0199 40.4394 38.1879 41.7834 37.1639C43.1274 36.0759 43.8634 34.7639 43.9914 33.2279C44.1834 30.5399 42.5834 29.1959 39.1914 29.1959C37.0794 29.0679 35.3194 29.6759 33.9114 31.0199C32.5034 32.3639 31.5434 33.9319 31.0314 35.7239L11.9274 35.6279C12.6954 31.2119 14.3914 27.3079 17.0154 23.9159C19.6394 20.4599 22.9674 17.7399 26.9994 15.7559C31.0954 13.7719 35.7034 12.7799 40.8234 12.7799C45.5594 12.7799 49.8154 13.5479 53.5914 15.0839C57.4314 16.5559 60.3434 18.7319 62.3274 21.6119C64.3754 24.4279 65.1114 27.8519 64.5354 31.8839C64.0234 35.6599 62.4874 38.6999 59.9274 41.0039C57.4314 43.3079 54.3914 45.0999 50.8074 46.3799C54.4554 47.7879 57.3034 49.8039 59.3514 52.4279C61.3994 55.0519 62.1354 58.5079 61.5594 62.7959C60.9834 67.1479 59.2234 70.8599 56.2794 73.9319C53.3354 77.0039 49.5914 79.3399 45.0474 80.9399C40.5674 82.5399 35.6074 83.3399 30.1674 83.3399Z" fill="#0073FF"/>
<path d="M83.617 73.1622C83.505 73.8662 83.633 74.4502 84.001 74.9142C84.385 75.3782 84.937 75.6262 85.657 75.6582C86.281 75.6742 86.881 75.5382 87.457 75.2502C88.033 74.9622 88.537 74.5942 88.969 74.1462L88.465 78.0342C88.017 78.2902 87.513 78.4982 86.953 78.6582C86.409 78.8182 85.777 78.8982 85.057 78.8982C83.873 78.8982 82.825 78.6582 81.913 78.1782C81.001 77.6822 80.313 77.0022 79.849 76.1382C79.385 75.2742 79.233 74.2742 79.393 73.1382C79.553 71.9702 79.977 70.9542 80.665 70.0902C81.353 69.2262 82.209 68.5622 83.233 68.0982C84.273 67.6182 85.401 67.3782 86.617 67.3782C87.337 67.3782 87.969 67.4582 88.513 67.6182C89.057 67.7782 89.553 67.9782 90.001 68.2182L89.473 72.1062C89.185 71.6102 88.801 71.2342 88.321 70.9782C87.857 70.7222 87.361 70.5942 86.833 70.5942C86.337 70.5942 85.857 70.7142 85.393 70.9542C84.945 71.1782 84.561 71.4902 84.241 71.8902C83.921 72.2742 83.713 72.6982 83.617 73.1622ZM103.764 67.6182L101.868 78.6582H97.8843L99.1803 71.1702H95.7963L94.5003 78.6582H90.5163L92.4363 67.6182H103.764ZM104.683 73.1382C104.843 71.9862 105.259 70.9782 105.931 70.1142C106.619 69.2502 107.475 68.5782 108.499 68.0982C109.523 67.6182 110.635 67.3782 111.835 67.3782C113.003 67.3782 114.027 67.6262 114.907 68.1222C115.803 68.6022 116.475 69.2742 116.923 70.1382C117.387 71.0022 117.539 72.0022 117.379 73.1382C117.219 74.2902 116.803 75.2982 116.131 76.1622C115.459 77.0262 114.611 77.6982 113.587 78.1782C112.563 78.6582 111.451 78.8982 110.251 78.8982C109.083 78.8982 108.051 78.6582 107.155 78.1782C106.259 77.6822 105.579 77.0022 105.115 76.1382C104.667 75.2742 104.523 74.2742 104.683 73.1382ZM108.907 73.1622C108.811 73.7702 108.899 74.3142 109.171 74.7942C109.443 75.2582 109.883 75.5062 110.491 75.5382C111.131 75.5542 111.707 75.3222 112.219 74.8422C112.747 74.3622 113.067 73.7862 113.179 73.1142C113.275 72.5062 113.187 71.9622 112.915 71.4822C112.643 71.0022 112.203 70.7542 111.595 70.7382C110.955 70.7062 110.379 70.9382 109.867 71.4342C109.355 71.9142 109.035 72.4902 108.907 73.1622ZM122.898 73.1622C122.786 73.8662 122.914 74.4502 123.282 74.9142C123.666 75.3782 124.218 75.6262 124.938 75.6582C125.562 75.6742 126.162 75.5382 126.738 75.2502C127.314 74.9622 127.818 74.5942 128.25 74.1462L127.746 78.0342C127.298 78.2902 126.794 78.4982 126.234 78.6582C125.69 78.8182 125.058 78.8982 124.338 78.8982C123.154 78.8982 122.106 78.6582 121.194 78.1782C120.282 77.6822 119.594 77.0022 119.13 76.1382C118.666 75.2742 118.514 74.2742 118.674 73.1382C118.834 71.9702 119.258 70.9542 119.946 70.0902C120.634 69.2262 121.49 68.5622 122.514 68.0982C123.554 67.6182 124.682 67.3782 125.898 67.3782C126.618 67.3782 127.25 67.4582 127.794 67.6182C128.338 67.7782 128.834 67.9782 129.282 68.2182L128.754 72.1062C128.466 71.6102 128.082 71.2342 127.602 70.9782C127.138 70.7222 126.642 70.5942 126.114 70.5942C125.618 70.5942 125.138 70.7142 124.674 70.9542C124.226 71.1782 123.842 71.4902 123.522 71.8902C123.202 72.2742 122.994 72.6982 122.898 73.1622ZM130.23 73.1382C130.39 71.9862 130.806 70.9782 131.478 70.1142C132.166 69.2502 133.022 68.5782 134.046 68.0982C135.07 67.6182 136.182 67.3782 137.382 67.3782C138.55 67.3782 139.574 67.6262 140.454 68.1222C141.35 68.6022 142.022 69.2742 142.47 70.1382C142.934 71.0022 143.086 72.0022 142.926 73.1382C142.766 74.2902 142.35 75.2982 141.678 76.1622C141.006 77.0262 140.158 77.6982 139.134 78.1782C138.11 78.6582 136.998 78.8982 135.798 78.8982C134.63 78.8982 133.598 78.6582 132.702 78.1782C131.806 77.6822 131.126 77.0022 130.662 76.1382C130.214 75.2742 130.07 74.2742 130.23 73.1382ZM134.454 73.1622C134.358 73.7702 134.446 74.3142 134.718 74.7942C134.99 75.2582 135.43 75.5062 136.038 75.5382C136.678 75.5542 137.254 75.3222 137.766 74.8422C138.294 74.3622 138.614 73.7862 138.726 73.1142C138.822 72.5062 138.734 71.9622 138.462 71.4822C138.19 71.0022 137.75 70.7542 137.142 70.7382C136.502 70.7062 135.926 70.9382 135.414 71.4342C134.902 71.9142 134.582 72.4902 134.454 73.1622ZM144.629 72.7302C144.629 71.1942 144.853 69.7782 145.301 68.4822C145.765 67.1702 146.429 66.0262 147.293 65.0502C148.173 64.0582 149.237 63.2822 150.485 62.7222C151.445 62.3062 152.253 61.8982 152.909 61.4982C153.565 61.0982 154.069 60.5782 154.421 59.9382L158.429 59.9622C158.093 61.1302 157.445 62.1382 156.485 62.9862C155.525 63.8342 154.405 64.5302 153.125 65.0742C152.069 65.5222 151.149 66.0982 150.365 66.8022C149.597 67.4902 149.053 68.3062 148.733 69.2502C149.181 68.6742 149.709 68.2262 150.317 67.9062C150.941 67.5702 151.661 67.4022 152.477 67.4022C153.613 67.4022 154.581 67.6582 155.381 68.1702C156.197 68.6662 156.797 69.3462 157.181 70.2102C157.581 71.0742 157.709 72.0502 157.565 73.1382C157.421 74.2582 157.029 75.2502 156.389 76.1142C155.749 76.9782 154.925 77.6582 153.917 78.1542C152.909 78.6502 151.781 78.8982 150.533 78.8982C149.173 78.8982 148.053 78.6102 147.173 78.0342C146.309 77.4582 145.669 76.7062 145.253 75.7782C144.837 74.8342 144.629 73.8182 144.629 72.7302ZM148.973 73.5942C148.973 74.1382 149.117 74.6022 149.405 74.9862C149.709 75.3542 150.141 75.5382 150.701 75.5382C151.341 75.5382 151.909 75.3062 152.405 74.8422C152.901 74.3622 153.205 73.7862 153.317 73.1142C153.445 72.3942 153.333 71.8102 152.981 71.3622C152.645 70.9142 152.173 70.6902 151.565 70.6902C151.149 70.6902 150.741 70.8022 150.341 71.0262C149.941 71.2342 149.613 71.5542 149.357 71.9862C149.101 72.4022 148.973 72.9382 148.973 73.5942L148.853 73.5462V73.5702L148.973 73.5942Z" fill="#0073FF"/>
</svg>

<svg width="168" height="84" fill="none" xmlns="http://www.w3.org/2000/svg"><path d="M30.167 83.34c-5.568-.064-10.272-1.248-14.112-3.552-3.776-2.368-6.592-5.472-8.448-9.312-1.792-3.84-2.496-8.032-2.112-12.576l20.064.096c-.064 2.752.48 4.928 1.632 6.528 1.216 1.536 3.008 2.368 5.376 2.496 2.112.064 4.032-.416 5.76-1.44 1.792-1.088 2.848-2.72 3.168-4.896.576-2.624-.32-4.512-2.688-5.664-2.368-1.216-5.44-1.856-9.216-1.92l1.344-9.888.384-2.496a24.403 24.403 0 005.568-1.056c1.92-.64 3.552-1.472 4.896-2.496 1.344-1.088 2.08-2.4 2.208-3.936.192-2.688-1.408-4.032-4.8-4.032-2.112-.128-3.872.48-5.28 1.824-1.408 1.344-2.368 2.912-2.88 4.704l-19.104-.096c.768-4.416 2.464-8.32 5.088-11.712 2.624-3.456 5.952-6.176 9.984-8.16 4.096-1.984 8.704-2.976 13.824-2.976 4.736 0 8.992.768 12.768 2.304 3.84 1.472 6.752 3.648 8.736 6.528 2.048 2.816 2.784 6.24 2.208 10.272-.512 3.776-2.048 6.816-4.608 9.12-2.496 2.304-5.536 4.096-9.12 5.376 3.648 1.408 6.496 3.424 8.544 6.048s2.784 6.08 2.208 10.368c-.576 4.352-2.336 8.064-5.28 11.136-2.944 3.072-6.688 5.408-11.232 7.008-4.48 1.6-9.44 2.4-14.88 2.4zm53.45-10.178c-.112.704.016 1.288.384 1.752.384.464.936.712 1.656.744a3.755 3.755 0 001.8-.408 5.496 5.496 0 001.512-1.104l-.504 3.888a6.802 6.802 0 01-1.512.624c-.544.16-1.176.24-1.896.24-1.184 0-2.232-.24-3.144-.72-.912-.496-1.6-1.176-2.064-2.04-.464-.864-.616-1.864-.456-3 .16-1.168.584-2.184 1.272-3.048a6.843 6.843 0 012.568-1.992c1.04-.48 2.168-.72 3.384-.72.72 0 1.352.08 1.896.24.544.16 1.04.36 1.488.6l-.528 3.888a2.89 2.89 0 00-1.152-1.128 3.033 3.033 0 00-1.488-.384c-.496 0-.976.12-1.44.36a3.42 3.42 0 00-1.152.936c-.32.384-.528.808-.624 1.272zm20.147-5.544l-1.896 11.04h-3.984l1.296-7.488h-3.384L94.5 78.658h-3.984l1.92-11.04h11.328zm.919 5.52c.16-1.152.576-2.16 1.248-3.024a7.068 7.068 0 012.568-2.016c1.024-.48 2.136-.72 3.336-.72 1.168 0 2.192.248 3.072.744.896.48 1.568 1.152 2.016 2.016.464.864.616 1.864.456 3-.16 1.152-.576 2.16-1.248 3.024a6.856 6.856 0 01-2.544 2.016c-1.024.48-2.136.72-3.336.72-1.168 0-2.2-.24-3.096-.72-.896-.496-1.576-1.176-2.04-2.04-.448-.864-.592-1.864-.432-3zm4.224.024c-.096.608-.008 1.152.264 1.632.272.464.712.712 1.32.744.64.016 1.216-.216 1.728-.696.528-.48.848-1.056.96-1.728.096-.608.008-1.152-.264-1.632s-.712-.728-1.32-.744c-.64-.032-1.216.2-1.728.696a3.117 3.117 0 00-.96 1.728zm13.991 0c-.112.704.016 1.288.384 1.752.384.464.936.712 1.656.744a3.755 3.755 0 001.8-.408 5.496 5.496 0 001.512-1.104l-.504 3.888a6.802 6.802 0 01-1.512.624c-.544.16-1.176.24-1.896.24-1.184 0-2.232-.24-3.144-.72-.912-.496-1.6-1.176-2.064-2.04-.464-.864-.616-1.864-.456-3 .16-1.168.584-2.184 1.272-3.048a6.843 6.843 0 012.568-1.992c1.04-.48 2.168-.72 3.384-.72.72 0 1.352.08 1.896.24.544.16 1.04.36 1.488.6l-.528 3.888a2.89 2.89 0 00-1.152-1.128 3.033 3.033 0 00-1.488-.384c-.496 0-.976.12-1.44.36a3.42 3.42 0 00-1.152.936c-.32.384-.528.808-.624 1.272zm7.332-.024c.16-1.152.576-2.16 1.248-3.024a7.068 7.068 0 012.568-2.016c1.024-.48 2.136-.72 3.336-.72 1.168 0 2.192.248 3.072.744.896.48 1.568 1.152 2.016 2.016.464.864.616 1.864.456 3-.16 1.152-.576 2.16-1.248 3.024a6.856 6.856 0 01-2.544 2.016c-1.024.48-2.136.72-3.336.72-1.168 0-2.2-.24-3.096-.72-.896-.496-1.576-1.176-2.04-2.04-.448-.864-.592-1.864-.432-3zm4.224.024c-.096.608-.008 1.152.264 1.632.272.464.712.712 1.32.744.64.016 1.216-.216 1.728-.696.528-.48.848-1.056.96-1.728.096-.608.008-1.152-.264-1.632s-.712-.728-1.32-.744c-.64-.032-1.216.2-1.728.696a3.117 3.117 0 00-.96 1.728zm10.175-.432c0-1.536.224-2.952.672-4.248.464-1.312 1.128-2.456 1.992-3.432a9.3 9.3 0 013.192-2.328c.96-.416 1.768-.824 2.424-1.224.656-.4 1.16-.92 1.512-1.56l4.008.024c-.336 1.168-.984 2.176-1.944 3.024-.96.848-2.08 1.544-3.36 2.088a9.845 9.845 0 00-2.76 1.728 5.701 5.701 0 00-1.632 2.448 4.87 4.87 0 011.584-1.344c.624-.336 1.344-.504 2.16-.504 1.136 0 2.104.256 2.904.768a4.455 4.455 0 011.8 2.04c.4.864.528 1.84.384 2.928-.144 1.12-.536 2.112-1.176 2.976a6.706 6.706 0 01-2.472 2.04c-1.008.496-2.136.744-3.384.744-1.36 0-2.48-.288-3.36-.864a5.245 5.245 0 01-1.92-2.256 7.474 7.474 0 01-.624-3.048zm4.344.864c0 .544.144 1.008.432 1.392.304.368.736.552 1.296.552.64 0 1.208-.232 1.704-.696.496-.48.8-1.056.912-1.728.128-.72.016-1.304-.336-1.752-.336-.448-.808-.672-1.416-.672-.416 0-.824.112-1.224.336-.4.208-.728.528-.984.96-.256.416-.384.952-.384 1.608l-.12-.048v.024l.12.024z" fill="#0073FF"/></svg>
